!!!!SEGMENT: pl-kk--kk-i-636--002-004_anonim--in-parasceve-responsorium-2dum.krn
!!!cenid: 18xx:4538
!!!COM: Anonim
!!!COM-rismID: pe30004985
!!!CDT:
!!!CNT:
!!!OPR: In Parasceve
!!!OTL: Responsorium 2dum
!!!OMV: 004
!!!PDT:
!!!AGN: Sacred
!!!YEC: Copyright 2022 Narodowy Instytut Fryderyka Chopina (https://polishscores.org)
!!!YEM: License CC-BY-4.0 (https://creativecommons.org/licenses/by/4.0)
!!!SMS-siglum: PL-Kk
!!!SMS-shelfmark: Kk.I.636
!!!SMS-variant:
!!!SMS-altvar:
!!!SMS-shelfwork: 002-004 M
!!!NIFC-rismSourceID: 1001216440
!!!NIFC-rismChildID: 1001216916
!!!NIFC-islandoraID: pl-kk:40786
!!!URL-pdf-islandora: https://repozytorium.nifc.pl/islandora/object/pl-kk%3A40786/datastream/PDF/view
!!!URL-scan: https://polish.musicsources.pl/pl/lokalizacje/galeria/rekopisy/7271/1 @EN{Scan on Polish Music Sources Website} @PL{Skany w portalu Dziedzictwo Muzyki Polskiej w otwartym dostępie}
!!!IIIF:
!!!ONB-nifc: UWAGA: Lamentacje i Responsoria In Parasceve na skanach: S – 8-14, A – 31-37,T – 53-60, B – 78-86. Każda Lamentacja i Responsorium to oddzielne pliki.
!!!AIN: 1 alto 1 bass 1 soprn 1 tenor
!!!key: A
**kern	**text	**kern	**text	**dynam	**kern	**text	**kern	**text
*part4	*part4	*part3	*part3	*part3	*part2	*part2	*part1	*part1
*staff4	*staff4	*staff3	*staff3	*	*staff2	*staff2	*staff1	*staff1
*ICvox	*	*ICvox	*	*	*ICvox	*	*ICvox	*
*Ibass	*	*Itenor	*	*	*Ialto	*	*Isoprn	*
*I"Basso.	*	*I"Tenore.	*	*	*I"Alto.	*	*I"Soprano.	*
*I'B	*	*I'T	*	*	*I'A	*	*I'S	*
*clefF4	*	*clefC4	*	*	*clefC3	*	*clefC1	*
*k[f#c#g#]	*	*k[f#c#g#]	*	*	*k[f#c#g#]	*	*k[f#c#g#]	*
*A:	*	*A:	*	*	*A:	*	*A:	*
*M4/4	*	*M4/4	*	*	*M4/4	*	*M4/4	*
*met(c)	*	*met(c)	*	*	*met(c)	*	*met(c)	*
*all\right	*	*all\right	*	*	*all\right	*	*all\right	*
=1	=1	=1	=1	=1	=1	=1	=1	=1
*2\right	*	*2\right	*	*	*2\right	*	*2\right	*
!!LO:TX:t=P:problem:all\right
4r	.	4r	.	.	4r	.	4r	.
2A\	Vel-	2e\	Vel-	.	2a\	Vel-	2cc#\	Vel-
4A\	-lum	4e\	-lum	.	4a\	-lum	4cc#\	-lum
=2	=2	=2	=2	=2	=2	=2	=2	=2
2A\	tem-	2e\	tem-	.	2a\	Tem-	2cc#\	Tem-
2E\	-pli	2e\	-pli	.	2g#\	-pli	(4.b\	-pli
.	.	.	.	.	.	.	8cc#\)	.
!LO:LB:g=original	!	!LO:LB:g=original	!	!	!LO:LB:g=original	!	!LO:LB:g=original	!
=3	=3	=3	=3	=3	=3	=3	=3	=3
2D\	scis-	2f#\	scis-	.	2a\	scis-	2dd\	scis-
2E\	-sum	2e\	-sum	.	2g#\	-sum	2b\	-sum
=4	=4	=4	=4	=4	=4	=4	=4	=4
2.BB/	est,	2.d#X\	est,	.	2.f#\	est	4b\	est
.	.	.	.	.	.	.	4f#/	et
.	.	.	.	.	.	.	[2b\	o-
4B\	et	4d#\	et	.	4f#\	et	.	.
=5	=5	=5	=5	=5	=5	=5	=5	=5
4B\	om-	4d\	om-	.	4f#\	om-	4b\]	.
4G#\	-nis	4e\	-nis	.	4g#\	-nis	4b\	-mnis
4A\	ter-	4c#\	ter-	.	4e\	ter-	4cc#\	ter-
4F#\	-ra	4d#X\	-ra	.	4a\	-ra	4b\	-ra
=6	=6	=6	=6	=6	=6	=6	=6	=6
4.E\	tre-	4.e\	tre-	.	4.g#\	tre-	4.b\	tre-
8E\	-mu-	8e\	-mu-	.	8g#\	-mu-	8b\	-mu-
2E\	-it,	2e\	-it,	.	2g#\	-it,	2b\	-it
!LO:LB:g=original	!	!	!	!	!LO:LB:g=original	!	!LO:LB:g=original	!
=7	=7	=7	=7	=7	=7	=7	=7	=7
2A\	la-	2e\	la-	.	2a\	la-	2cc#\	la-
4A\	-tro	4e\	-tro	.	4a\	-tro	4cc#\	-tro
4A\	de	4e\	de	.	4a\	de	4cc#\	de
!	!	!LO:LB:g=original	!	!	!	!	!	!
=8	=8	=8	=8	=8	=8	=8	=8	=8
2D\	cru-	2f#\	cru-	.	2a\	cru-	2dd\	cru-
4D\	-ce	4f#\	-ce	.	4a\	-ce,	4dd\	-ce
4D\	cla-	4f#\	cla-	.	4a\	cla-	4dd\	cla-
=9	=9	=9	=9	=9	=9	=9	=9	=9
4A\	-ma-	4e\	-ma-	.	4a\	-ma-	4cc#\	-ma-
4G#\	-bat,	4e\	-bat	.	4e\	-bat,	4b\	-bat
2A\	di-	2e\	di-	.	2a\	di-	2cc#\	di-
=10	=10	=10	=10	=10	=10	=10	=10	=10
2E\	-cens,	2e\	-cens,	.	2g#\	-cens,	2b\	-cens:
2E\	me-	2e\	me-	.	2g#\	me-	2b\	me-
!LO:LB:g=original	!	!	!	!	!	!	!	!
=11	=11	=11	=11	=11	=11	=11	=11	=11
2.E#X\	-men-	2.d\	-men-	.	2.g#\	-men-	2.b\	-men-
4E#\	-to	4d\	-to	.	4g#\	-to	4b\	-to
!	!	!	!	!	!LO:LB:g=original	!	!LO:LB:g=original	!
=12	=12	=12	=12	=12	=12	=12	=12	=12
2F#\	me-	2c#\	me-	.	2a\	me-	4a\	me-
.	.	.	.	.	.	.	4f#\	.
2En\	-i	2c#\	-i	.	2g#\	-i	[2cc#\	.
!	!	!LO:LB:g=original	!	!	!	!	!	!
=13	=13	=13	=13	=13	=13	=13	=13	=13
2.D\	Do-	4A\	Do-	.	2.f#\	Do-	4cc#\]	.
.	.	8G#/L	.	.	.	.	8b\L	-i
.	.	8F#/J	.	.	.	.	8a\J	.
.	.	4d\	.	.	.	.	4.b\	Do-
4D\	-mi-	4B\	-mi-	.	4f#\	-mi-	.	.
.	.	.	.	.	.	.	8b\	-mi-
=14	=14	=14	=14	=14	=14	=14	=14	=14
4C#/	-ne,	4G#/	-ne,	.	4e#X\	-ne,	4cc#\	-ne
4C#/	dum	4G#/	dum	.	4e#\	dum	4cc#\	dum
4.F#\	ve-	4.A#X/	ve-	.	4.en\	ve-	4.a#X\	ve-
8F#\	-ne-	8A#/	-ne-	.	8e\	-ne-	8a#\	-ne-
=15	=15	=15	=15	=15	=15	=15	=15	=15
4BB/	ris	4B\	ris	.	4d#X\	-ris	4an\	-ris
4BB/	in	4B\	in	.	4d#\	in	4a\	in
2E\	re-	2B\	re-	.	2dn\	re-	2g#\	re-
!LO:LB:g=original	!	!	!	!	!LO:LB:g=original	!	!LO:LB:g=original	!
=16	=16	=16	=16	=16	=16	=16	=16	=16
4AA/	-gnum,	4c#\	-gnum,	.	4c#\	-gnum,	4a\	-gnum,
4A\	dum	4c#\	dum	.	4e\	dum	4a\	dum
4.A\	ve-	4.c#\	ve-	.	4.e\	ve-	4.a\	ve-
8A\	-ne-	8c#\	-ne-	.	8e\	-ne-	8a\	-ne-
!	!	!LO:LB:g=original	!	!	!	!	!	!
=17	=17	=17	=17	=17	=17	=17	=17	=17
4F#\	-ris	4d\	-ris	.	4f#\	-ris	4a\	-ris
4C#/	in	4e\	in	.	4a\	in	4a\	in
4D/	reg-	4A\	reg-	.	4f#\	reg-	4dd\	reg-
4AA/	-num	4A\	-num	.	4d\	-num	4cc#\	-num
=18	=18	=18	=18	=18	=18	=18	=18	=18
1D	tu-	1A	tu-	.	1f#	tu-	[1dd	tu-
=19	=19	=19	=19	=19	=19	=19	=19	=19
1AA	.	1A	.	.	4f#\	.	4dd\]	.
.	.	.	.	.	8e\L	.	8cc#\L	.
.	.	.	.	.	8d\J	.	8b\J	.
.	.	.	.	.	2e\	.	2cc#\	.
!	!	!	!	!	!LO:LB:g=original	!	!LO:LB:g=original	!
=20	=20	=20	=20	=20	=20	=20	=20	=20
1AA;	-um.	1A;	-um.	.	1e;	-um.	1cc#;	-um.
!LO:LB:g=original	!	!	!	!	!	!	!	!
=21||	=21||	=21||	=21||	=21||	=21||	=21||	=21||	=21||
*M4/4	*	*M4/4	*	*	*M4/4	*	*M4/4	*
*met(c)	*	*met(c)	*	*	*met(c)	*	*met(c)	*
!LO:TX:b:t=5.:mod=	!	!LO:TX:a:t=1:mod=	!	!	!LO:TX:a:rj:t=Solo.	!	!LO:TX:a:t=4.:mod=	!
00r	.	1r	.	.	8f#\	Pet-	00r	.
.	.	.	.	.	8c#\	-ra	.	.
.	.	.	.	.	8a\	scis-	.	.
.	.	.	.	.	16g#\LL	-sa	.	.
.	.	.	.	.	16f#\JJ	.	.	.
.	.	.	.	.	8g#\	sunt,	.	.
.	.	.	.	.	8c#\	et	.	.
.	.	.	.	.	8b\	mo-	.	.
.	.	.	.	.	8g#\	-nu-	.	.
!	!	!	!	!	!LO:LB:g=original	!	!	!
=22	=22	=22	=22	=22	=22	=22	=22	=22
!	!	!LO:TX:a:t=Solo.	!	!LO:DY:b:t=for&colon;	!	!	!	!
.	.	2r	.	f	8a\	-men-	.	.
.	.	.	.	.	16f#\	-ta	.	.
.	.	.	.	.	16a\	a-	.	.
.	.	.	.	.	16a\LL	-per-	.	.
.	.	.	.	.	16g#\JJ	.	.	.
.	.	.	.	.	16g#\LL	-ta	.	.
.	.	.	.	.	16f#\JJ	.	.	.
.	.	8c#\	pet-	.	4e\	sunt,	.	.
.	.	8G#/	-ra	.	.	.	.	.
.	.	8e\	scis-	.	4r	.	.	.
.	.	16d#X\LL	-sa	.	.	.	.	.
.	.	16c#\JJ	.	.	.	.	.	.
!	!	!LO:LB:g=original	!	!	!	!	!	!
=23	=23	=23	=23	=23	=23	=23	=23	=23
!	!	!	!	!	!LO:TX:a:t=1:mod=	!	!	!
.	.	8d#X\	sunt,	.	1r	.	.	.
.	.	8G#/	et	.	.	.	.	.
.	.	8f#\	mo-	.	.	.	.	.
.	.	8d#\	-nu-	.	.	.	.	.
.	.	8e\	-men-	.	.	.	.	.
.	.	16c#\	-ta	.	.	.	.	.
.	.	16e\	a-	.	.	.	.	.
.	.	8d#\	-per-	.	.	.	.	.
.	.	8c#\	-ta	.	.	.	.	.
!	!	!	!	!	!LO:TX:b:rj:t=Volti Subitto.:mod=	!	!	!
!	!	!	!	!	!LO:PB:g=original	!	!	!
=24	=24	=24	=24	=24	=24	=24	=24	=24
.	.	8B#X\	sunt	.	2r	.	.	.
.	.	8G#/	et	.	.	.	.	.
.	.	8d#X\	mul-	.	.	.	.	.
.	.	8d#\	-ta	.	.	.	.	.
.	.	8d#\	cor-	.	8r	.	.	.
.	.	16c#\LL	-po-	.	8c#\	et	.	.
.	.	16B#X\JJ	.	.	.	.	.	.
.	.	8c#\	-ra	.	8g#\	mul-	.	.
.	.	8Bn\	san-	.	8g#\	-ta	.	.
!	!	!LO:LB:g=original	!	!	!	!	!	!
=25	=25	=25	=25	=25	=25	=25	=25	=25
!	!	!	!	!	!	!	!LO:TX:a:t=Solo.	!
1r	.	8B\	-cto-	.	8g#\	cor-	8r	.
.	.	8A\	-rum	.	16f#\LL	-po-	8f#/	et
.	.	.	.	.	16e#X\JJ	.	.	.
.	.	4r	.	.	8f#\	-ra	8cc#\	mul-
.	.	.	.	.	8en\	san-	8cc#\	-ta
.	.	2r	.	.	8e\	-cto-	8cc#\	cor-
.	.	.	.	.	8d#X\	-rum,	16b\LL	-po-
.	.	.	.	.	.	.	16a#X\JJ	.
.	.	.	.	.	[4f#\	qui	8b\	-ra
.	.	.	.	.	.	.	8an\	san-
!	!	!	!	!	!	!	!LO:LB:g=original	!
=26	=26	=26	=26	=26	=26	=26	=26	=26
!LO:TX:a:rj:t=Solo.	!	!LO:TX:a:t=3.:mod=	!	!	!LO:N:xstem:cue	!	!	!
8E\	Pet-	0r	.	.	8f#\]	.	8a\	cto-
8BB/	-ra	.	.	.	16e\LL	dor-	8g#\	-rum,
.	.	.	.	.	16d#X\JJ	.	.	.
8G#\	scis-	.	.	.	8.e\	-mi-	4r	.
16F#\LL	-sae	.	.	.	.	.	.	.
16E\JJ	.	.	.	.	16e\	-e-	.	.
8F#\	sunt,	.	.	.	4d#\	-rant	2r	.
8BB/	et	.	.	.	.	.	.	.
8A\	mo-	.	.	.	4r	.	.	.
8F#\	-nu-	.	.	.	.	.	.	.
!	!	!	!	!	!	!	!LO:TX:b:rj:t=Volti Subitto&colon;:mod=	!
!LO:LB:g=original	!	!	!	!	!LO:LB:g=original	!	!LO:PB:g=original	!
=27	=27	=27	=27	=27	=27	=27	=27	=27
!	!	!	!	!	!LO:TX:a:t=3:mod=	!	!	!
8G#\	-men-	.	.	.	0r	.	2r	.
16E\	-ta	.	.	.	.	.	.	.
16G#\	a-	.	.	.	.	.	.	.
4.B\	-per-	.	.	.	.	.	.	.
.	.	.	.	.	.	.	8a\	pe-
16A\LL	.	.	.	.	.	.	8e/	-tra
16G#\JJ	.	.	.	.	.	.	.	.
8.A\	.	.	.	.	.	.	8cc#\	scis-
.	.	.	.	.	.	.	16b\LL	-sa
16A\	-ta	.	.	.	.	.	16a\JJ	.
=28	=28	=28	=28	=28	=28	=28	=28	=28
4G#\	sunt,	1r	.	.	.	.	8b\	sunt,
.	.	.	.	.	.	.	8e/	et
4r	.	.	.	.	.	.	8dd\	mo-
.	.	.	.	.	.	.	8b\	-nu-
2r	.	.	.	.	.	.	8cc#\	-men-
.	.	.	.	.	.	.	16a\	-ta
.	.	.	.	.	.	.	16cc#\	a-
.	.	.	.	.	.	.	16cc#\LL	-per-
.	.	.	.	.	.	.	16b\JJ	.
.	.	.	.	.	.	.	16b\LL	-ta
.	.	.	.	.	.	.	16a\JJ	.
!	!	!	!	!	!	!	!LO:LB:g=original	!
=29	=29	=29	=29	=29	=29	=29	=29	=29
2r	.	8r	.	.	1r	.	8g#\	sunt,
.	.	8B\	et	.	.	.	8g#\	et
.	.	8e\	mul-	.	.	.	8g#\	mul-
.	.	8e\	-ta	.	.	.	8g#\	-ta
8r	.	8e\	cor-	.	.	.	8.f#/	cor-
8F#\	et	16d\LL	-po-	.	.	.	.	.
.	.	16c#\JJ	.	.	.	.	16f#/	-po-
8B\	mul-	8d\	-ra	.	.	.	8f#/	-ra
8B\	-ta	8d\	san-	.	.	.	8f#/	sanc-
!LO:LB:g=original	!	!LO:LB:g=original	!	!	!	!	!	!
=30	=30	=30	=30	=30	=30	=30	=30	=30
8B\	cor-	2c#\	-cto-	.	8r	.	8f#/	-to-
16A\LL	-po-	.	.	.	8c#\	et	8f#/	-rum,
16G#\JJ	.	.	.	.	.	.	.	.
8A\	-ra	.	.	.	8f#\	mul-	4r	.
8A\	san-	.	.	.	8f#\	-ta	.	.
2G#\	-cto-	4B\	-rum,	.	8f#\	cor-	8r	.
.	.	.	.	.	16e\LL	po-	8g#\	et
.	.	.	.	.	16d\JJ	.	.	.
.	.	4r	.	.	8e\	-ra	8cc#\	mul-
.	.	.	.	.	8e\	san-	8cc#\	-ta
!	!	!	!	!	!	!	!LO:LB:g=original	!
=31	=31	=31	=31	=31	=31	=31	=31	=31
!	!	!LO:TX:a:t=1:mod=	!	!	!	!	!	!
4F#\	-rum,	1r	.	.	2d\	-cto-	8cc#\	cor-
.	.	.	.	.	.	.	16b\LL	-po-
.	.	.	.	.	.	.	16a\JJ	.
4r	.	.	.	.	.	.	8b\	-ra
.	.	.	.	.	.	.	8b\	sanc-
8r	.	.	.	.	4c#\	-rum,	8b\	-to-
8E\	et	.	.	.	.	.	8a\	-rum
8A\	mul-	.	.	.	[4f#\	qui	4r	.
8A\	-ta	.	.	.	.	.	.	.
=32	=32	=32	=32	=32	=32	=32	=32	=32
8G#\	cor-	2r	.	.	4f#\]	.	4r	.
16G#\LL	-po-	.	.	.	.	.	.	.
16F#\JJ	.	.	.	.	.	.	.	.
8G#\	-ra	.	.	.	4e#X\	dor-	2g#/	qui
8C#/	san-	.	.	.	.	.	.	.
!	!	!	!	!	!LO:LB:g=original	!	!	!
8F#\	-cto-	4r	.	.	4.a\	-mi-	.	.
8F#\	-rum	.	.	.	.	.	.	.
4r	.	[4A\	qui	.	.	.	4f#/	dor-
.	.	.	.	.	8g#\	-e-	.	.
!LO:LB:g=original	!	!	!	!	!	!	!	!
=33	=33	=33	=33	=33	=33	=33	=33	=33
4r	.	4A\]	.	.	4f#\	-rant	4.b\	-mi-
2B\	qui	4G#\	dor-	.	4r	.	.	.
.	.	.	.	.	.	.	16a\LL	-e-
.	.	.	.	.	.	.	16g#\JJ	.
.	.	4.c#\	-mi-	.	2r	.	4a\	-bant,
4A\	dor-	.	.	.	.	.	[4cc#\	qui
.	.	8B\	-e-	.	.	.	.	.
!	!	!	!	!	!	!	!LO:LB:g=original	!
=34	=34	=34	=34	=34	=34	=34	=34	=34
4.Gn\	-mi-	4A#X\	-rant,	.	4r	.	4cc#\]	.
.	.	2c#\	qui	.	2e\	qui	4a#X\	dor-
8G\	-e-	.	.	.	.	.	.	.
4F#\	-bant,	.	.	.	.	.	4.b\	-mi-
4B\	qui	4B\	dor-	.	8d\L	dor-	.	.
.	.	.	.	.	8c#\J	.	8an\	-e-
!	!	!LO:LB:g=original	!	!	!	!	!	!
=35	=35	=35	=35	=35	=35	=35	=35	=35
2E#X\	dor-	4.B\	-mi-	.	4.d\	-mi-	4g#\	-rant,
.	.	.	.	.	.	.	4r	.
.	.	8B\	-e-	.	8d\	-e-	.	.
!	!	!	!	!	!	!	!LO:SIC:v:s=4a\	!
8.F#\	-mi-	4A\	-rant	.	4c#\	-rant,	4g#\	sur-
16En\	-e-	.	.	.	.	.	.	.
4D\	-rant	[4d\	sur-	.	4f#\	sur-	4b\	-re-
!	!	!	!	!	!LO:LB:g=original	!	!	!
=36	=36	=36	=36	=36	=36	=36	=36	=36
4C#/	sur-	4d\]	.	.	4e#X\	-re-	8b\L	-xe-
.	.	.	.	.	.	.	16a\L	.
.	.	.	.	.	.	.	16g#\JJ	.
4F#\	-re-	4c#\	-re-	.	4.f#\	-xe-	8a/L	.
.	.	.	.	.	.	.	8f#/J	.
2C#/	-xe-	2c#\	-xe-	.	.	.	4a\	.
.	.	.	.	.	16e#X\LL	.	.	.
.	.	.	.	.	16d#X\JJ	.	.	.
.	.	.	.	.	4e#\	.	4g#\	.
!LO:LB:g=original	!	!	!	!	!	!	!LO:LB:g=original	!
=37	=37	=37	=37	=37	=37	=37	=37	=37
2F#\	-runt.	2c#\	-runt:	.	2f#\	-runt:	2f#/	-runt.
2r	.	2r	.	.	2r	.	2r	.
=38||	=38||	=38||	=38||	=38||	=38||	=38||	=38||	=38||
*M4/4	*	*M4/4	*	*	*M4/4	*	*M4/4	*
*met(c)	*	*met(c)	*	*	*met(c)	*	*met(c)	*
!LO:TX:a:rj:t=tutti.	!	!LO:TX:a:rj:t=tutti.	!	!LO:DY:b:rj:t=for	!LO:TX:a:rj:t=tutti.	!	!LO:TX:a:rj:t=tutti.	!
2A\	Et	2e\	et	f	2a\	et	2cc#\	Et
4G#\	om-	4e\	om-	.	4b\	om-	4ee\	om-
4A\	-nis	4e\	-nis	.	4a\	-nis	4cc#\	-nis
=39	=39	=39	=39	=39	=39	=39	=39	=39
2E\	ter-	2e\	ter-	.	2g#\	ter-	2b\	ter-
2AA/	-ra	2e\	-ra	.	2a\	-ra	2cc#\	-ra
!	!	!LO:LB:g=original	!	!	!LO:LB:g=original	!	!	!
=40	=40	=40	=40	=40	=40	=40	=40	=40
4.E\	tre-	4.e\	tre-	.	4.g#\	tre-	4.b\	tre-
8E\	-mu-	8e\	-mu-	.	8g#\	-mu-	8b\	-mu-
2E\	-it,	2e\	-it	.	2g#\	-it,	2b\	-it,
!LO:LB:g=original	!	!	!	!	!	!	!LO:LB:g=original	!
=41	=41	=41	=41	=41	=41	=41	=41	=41
2A\	la-	2e\	la-	.	2a\	la-	2cc#\	lat-
4A\	-tro	4e\	-tro	.	4a\	-tro	4cc#\	-ro
4A\	de	4e\	de	.	4a\	de	4cc#\	de
=42	=42	=42	=42	=42	=42	=42	=42	=42
2D\	cru-	2f#\	cru-	.	2a\	cru-	2dd\	cru-
4D\	-ce	4f#\	-ce	.	4a\	-ce	4dd\	-ce
4D\	cla-	4f#\	cla-	.	4a\	cla-	4dd\	cla-
=43	=43	=43	=43	=43	=43	=43	=43	=43
4A\	-ma-	4e\	-ma-	.	4a\	-ma-	4cc#\	-ma-
4G#\	-bat	4e\	-bat	.	4e\	-bat	4b\	-bat
2A\	di-	2e\	di-	.	2a\	di-	2cc#\	di-
!	!	!	!	!	!LO:LB:g=original	!	!	!
=44	=44	=44	=44	=44	=44	=44	=44	=44
2E\	-cens,	2e\	-cens,	.	2g#\	-cens,	2b\	-cens,
2E\	me-	2e\	me-	.	2g#\	me-	2b\	me-
!	!	!LO:LB:g=original	!	!	!	!	!LO:LB:g=original	!
=45	=45	=45	=45	=45	=45	=45	=45	=45
2.E#X\	-men-	2.d\	-men-	.	2.g#\	-men-	2.b\	-men-
4E#\	-to	4d\	-to	.	4g#\	-to	4b\	-to
!LO:LB:g=original	!	!	!	!	!	!	!	!
=46	=46	=46	=46	=46	=46	=46	=46	=46
2F#\	me-	2c#\	me-	.	2a\	me-	4a\	me-
.	.	.	.	.	.	.	4f#/	.
2En\	-i	2c#\	-i	.	2g#\	-i	[2cc#\	.
=47	=47	=47	=47	=47	=47	=47	=47	=47
2.D\	Do-	4A/	Do-	.	2.f#\	Do-	4cc#\]	.
.	.	8G#/L	.	.	.	.	8b\L	i
.	.	8F#/J	.	.	.	.	8a\J	.
.	.	4d\	.	.	.	.	4.b\	Do-
4D\	-mi-	4B\	-mi-	.	4f#\	-mi-	.	.
.	.	.	.	.	.	.	8b\	-mi-
=48	=48	=48	=48	=48	=48	=48	=48	=48
4C#/	-ne	4G#/	-ne,	.	4e#X\	-ne,	4cc#\	-ne
4C#/	dum	4G#/	dum	.	4e#\	dum	4cc#\	dum
4.F#\	ve-	4.A#X/	ve-	.	4.en\	ve-	4.a#X\	ve-
8F#\	-ne-	8A#/	-ne-	.	8e\	-ne-	8a#\	-ne-
!	!	!	!	!	!LO:LB:g=original	!	!LO:LB:g=original	!
=49	=49	=49	=49	=49	=49	=49	=49	=49
4BB/	-ris	4B\	-ris	.	4d#X\	-ris	4an\	-ris
4BB/	in	4B\	in	.	4d#\	in	4a\	in
2E\	re-	2B\	re-	.	2dn\	re-	2g#\	re-
!	!	!LO:LB:g=original	!	!	!	!	!	!
=50	=50	=50	=50	=50	=50	=50	=50	=50
4AA/	-gnum,	4c#\	-gnum,	.	4c#\	-gnum	4a\	-gnum,
4A\	dum	4c#\	dum	.	4e\	dum	4a\	dum
4.A\	ve-	4.c#\	ve-	.	4.e\	ve-	4.a\	ve-
8A\	-ne-	8c#\	-ne-	.	8e\	-ne-	8a\	-ne-
!LO:LB:g=original	!	!	!	!	!	!	!	!
=51	=51	=51	=51	=51	=51	=51	=51	=51
4F#\	-ris	4d\	-ris	.	4f#\	-ris	4a\	-ris
4C#/	in	4e\	in	.	4a\	in	4a\	in
4D/	reg-	4A\	reg-	.	4f#\	reg-	4dd\	reg-
4AA/	-num	4A\	-num	.	4d\	-num	4cc#\	-num
=52	=52	=52	=52	=52	=52	=52	=52	=52
1D	tu-	1A	tu-	.	[1f#	tu-	[1dd	tu-
!	!	!	!	!	!LO:LB:g=original	!	!LO:LB:g=original	!
=53	=53	=53	=53	=53	=53	=53	=53	=53
0AA;	-um.	1A	.	.	4f#\]	.	4dd\]	.
.	.	.	.	.	8e\L	.	8cc#\L	.
.	.	.	.	.	8d\J	.	8b\J	.
.	.	.	.	.	2e\	.	2cc#\	.
=54-	=54	=54	=54	=54	=54	=54	=54	=54
.	.	1A;	-um.	.	1e;	-um.	1cc#;	-um.
!LO:TX:b:rj:t=Seq Lamentatio 3tia.:mod=	!	!	!	!	!	!	!	!
==	==	==	==	==	==	==	==	==
*-	*-	*-	*-	*-	*-	*-	*-	*-
!!!system-decoration: [(s1,s2,s3,s4)]
!!!RDF**kern: > = above
!!!RDF**kern: < = below
!!!RDF**kern: i = editorial accidental
!!!ENC: Filip Voros
!!!EED: Katarzyna Serwa
!!!END: 2023-11-15
!!!EEV: 2024-06-04
